X:1
T:In darkness let me dwell
T:John Dowland (c. 1563 -1626)
T:anonymous
T:Scritto con MuseScore, un software libero e gratuito: http://musescore.org/it Creative Commons Attribution-ShareAlike 4.0 License. 
T:Scritto con MuseScore, un software libero e gratuito: http://musescore.org/it Creative Commons Attribution-ShareAlike 4.0 License. 
T:Scritto con MuseScore, un software libero e gratuito: http://musescore.org/it Creative Commons Attribution-ShareAlike 4.0 License. 
T:Scritto con MuseScore, un software libero e gratuito: http://musescore.org/it Creative Commons Attribution-ShareAlike 4.0 License. 
Z:Scritto con MuseScore, un software libero e gratuito: http://musescore.org/it
Z:Creative Commons Attribution-ShareAlike 4.0 License.
%%score 1 2 3
L:1/8
Q:1/4=55
M:4/4
K:C
V:1 treble nm="Voce"
V:2 treble nm="Liuto"
V:3 bass nm="Viola da gamba"
V:1
"^Largo" z8 | z8 | z8 | z4 E4- | E2 F4 E2- | EF G2 A4- | A2 ^G z z2 c2 | B2 AG- GFEE | %8
w: |||In|_ dark\- ness|_ let _ me|* dwell The|ground, the ground _ shall sor\- row|
 E(D/C/ D2) E4 | z8 | E(^FG)E B3 A | c2 B2 z dcB- | B/A/ A2 ^G A4 | z2 E2 =G3 (^F/E/) | %14
w: sor\- row _ _ be.||The roof _ de\- spair to|bar all, all cheer\- ful|_ _ light from me.|The walls of _|
 F3 F E2 G2- | G2 =F4 E E | A6 A2 | ^G2 z A (_B3 c/d/) | A3 A =G2 z2 | z4 z2 d2 | d2 AA B4 | %21
w: mar\- ble black that|* moist\- ned that|moist\- ned|still shall weep _ _|still shall weep|My|mu\- sic my mu\-|
 A4 z3 A- | AG G4 ^F2 | G2 B4 EE- | E/E/A/A/ D(d- dc/B/) (c2- | cBA)^G A3 A | B8 | z4 A4 | d6 c2 | %29
w: sic hell-|* ish, hell\- ish|jar\- ring sounds, jar|_ ring, jar\- ring sounds to _ _ _ ban-|* ish ban\- ish friend\- ly|sleep.|Thus|wed\- ded|
 B3 B A4 | z2 A2 _B3 B | A3 A =G4- | G4 z4 | z2 e4 z ^G/A/ | B>B B2 z2 d2 | %35
w: to my woes|and bed\- ded|to my Tomb|_|O let me|liv\- ing die. O|
 z ^F/G/A/A/A/A/ c2- c/c/c/c/ | B2 z2 z eBc | ^GAB z z eBc | ^GABc d4- | d2 (c/d/e- e) B2 B | %40
w: let me liv\- ing, let me liv- * ing, liv\- ing|die Till death, till|death do come, till death till|death do come till death|_ till _ _ _ death do|
 A4 z4 | z4 z2 E2- | E2 F4 E2- | E(F G2) A4- | A4 ^G2 z2!D.C.! |] %45
w: come.|In|_ dark\- ness|_ let _ me|_ dwell.|
V:2
 [F,CFAca]4 [F,Fca]2 d2 | [CGcc']e [eb]2 [Ccea]g [B,Gdg]2 | [CAe]g [Dd^f]2 [E^g]c aB/A/ | %3
 [EBe]/>a/^g/f/g/a/g [A,EAcea]2 AB | [Ac]A d2 [^GB]3 [GB] | [Ac]d[EBe]c FB/A/ Bd | %6
 [EBe]4 [EBe]2 [A,EAcea]2 | [EBeg]2 [FAcf][CGc] e[DAd][A,EAc][G,B] | [F,A]B/c/ BA [E,B,E^GB]4 | %9
 [EGBe]^fge [^DBg]2 fA | [EGB^f]e e2 [B,^F^d]>d eF | [E^Ge] A2 =G/A/ [DB]F/A/ [Ee][Gd] | %12
 [Cc]>D [EB]E, [A,A]3 A | d3 e [B^d]2 e2 | Be [B,d]2 [Ece]3 B | [A,c]A=dB, [CG]2 ce | %16
 [F,FAd]2 c[G,B] [A,c]d e2 | [EB]2 [^CAe]>G [D^Fd]2 G2 | D[GAd] F2 [B,d][Eg]^g/D/E | %19
 [A,^cea][DAf]>B[=C=ce] [_B,d]=F [_B=g]A,/G,/ | [DA]g ^f2 [G,Gdg]^c/d/ e2 | %21
 [A,Fe]d dE/D/ [A,E]d^c=c | [Dd]c =B2 [D,_B]GAC | =B,[Gd]gf [^G,=Be]d [A,EAc]>=G, | %24
 [F,FA]2 =fG, G,e/d/ e2 | A,dcB [A,c]A a2 | [B,Be]a^g^f [EBeg]4 | [A,EA^cea]2 d2 [DAdf]2 [Ce]2 | %28
 [B,d]2 [Ac]2 [EB]2 e2 | e2 [E^G]=g [^CAf]2 e=G | [DFAe]ddA [G,Ad]G G2 | %31
 [DGAd]>G ^F=f [G,B]f [ce]2 | [G,Gcdg]B/A/ Bd [Cce]G/d/ [Ac]B/A/ | cd[^CAe]E [E^GBe]4 | %34
 [E^GBe]2 [EGBe]/E/E/^F/ [=GBe]3 B,/C/ | [DFAd]4 [A,EAce]2 [A,EAce]A, | %36
 [EBe^g]>^F [^GBe][Ac] [EGBe]2 [EGBe][A,Ace] | [EBe]>F G[Ace] [E^GBe]2 [EGBe][A,Ace] | %38
 [EBe]>^F ^G[Ae]/c'/ [=Gdb]B[=Fca]A | [EB^g]2 [cea]2 [Ec]>^g =gd | %40
 [G,cfa]2 A[Be]/d/ [ce]G/d/ [Ac]B/^G/ | A/B/[=GA]/F/E/A/^G [A,c]2 AB | [A,c]A d2 ^G,2 cB | %43
 [A,c]d[E,Be]c F,B/A/ cd | [ce]2 B2 z4 |] %45
V:3
 A,,8 | C,6 B,,2 | C,2 D,2 E,4- | E,4 A,,4 | A,4 ^G,4 | A,2 E,2 F,4 | E,4 z2 A,,2 | %7
 E,2 F,C,- C,D,A,,G,, | F,,4 E,,4 | z2 E,2 ^D,4 | E,4 B,,4 | E,2 z E, D,F,E,G, | C,>D, E,E,, A,,4 | %13
 z8 | z2 B,,2 E,4 | A,,3 B,, C,4 | F,,3 G,, A,,B,,C,D, | E,2 ^C,2 D,4 | z2 D,2 B,,E,>D,E, | %19
 A,,2 D,2 C, C,2 A,,/G,,/ | D,4 G,,4 | A,,4 A,,4 | D,,2 z2 D,3 C, | B,,3 A,, ^G,,2 A,,>=G,, | %24
 F,,3 G,, A,,4 | A,,6 A,,2 | E,,8 | A,,4 D,2 C,2 | B,,4 E,4- | E,2 D,2 ^C,4 | D,4 G,,2 G,,2 | %31
 D,4 G,,4 | z4 z2 A,2- | A,2 ^C,D, E,4- | E,2 z/ E,/E,/^F,/ G,3 B,,/C,/ | D,4 A,,3 A, | %36
 E,2 z A,, E,>^F, ^G,A, | E,2 z A,, E,>F, G,A, | E,2 z A, G,2 E,2 | E,6 E,2 | %40
 A,, A,2 B, CG, A,>^G, | A,=G,/F,/E,/D,/E, A,,2 z2 | A,,4 ^G,,4 | A,,2 E,,2 F,,4 | E,,4 z4 |] %45

